icons/icn_incid_carto.svg

<svg width="24" xmlns="http://www.w3.org/2000/svg" height="24" id="screenshot-63a85700-5cdb-80b5-8006-90c0866166b8" viewBox="0 0 24 24" xmlns:xlink="http://www.w3.org/1999/xlink" fill="none" version="1.1"><g id="shape-63a85700-5cdb-80b5-8006-90c0866166b8"><g class="frame-container-wrapper"><g class="frame-container-blur"><g class="frame-container-shadows"><g fill="none"><g class="fills" id="fills-63a85700-5cdb-80b5-8006-90c0866166b8"><rect rx="0" ry="0" x="0" y="0" width="24" height="24.000000000000455" transform="matrix(1, 0, 0, 1, 0, 0)" class="frame-background"/></g><g class="frame-children"><g id="shape-63a85700-5cdb-80b5-8006-90c59962b134" width="24" height="24" version="1.1" rx="0" ry="0" style="fill: rgb(0, 0, 0);"><g id="shape-63a85700-5cdb-80b5-8006-90c59966a51d" style="opacity: 1;"><g class="fills" id="fills-63a85700-5cdb-80b5-8006-90c59966a51d"><path d="M8.941008567810059,2.3261420726776123C8.935393333435059,2.3266303539276123,8.928801536560059,2.3276069164276123,8.923430442810059,2.3279731273651123C8.850432395935059,2.3284614086151123,8.777678489685059,2.3400580883026123,8.708342552185059,2.3612983226776123L2.5955495834350586,4.347870349884033C2.2893972396850586,4.448456287384033,2.0818777084350586,4.734100818634033,2.0799245834350586,5.056610584259033L2.0799245834350586,20.927581787109375C2.0818777084350586,21.166595458984375,2.1971120834350586,21.390838623046875,2.3907155990600586,21.530609130859375C2.5835866928100586,21.670867919921875,2.8326101303100586,21.710052490234375,3.0606374740600586,21.636810302734375L8.124358177185059,19.998016357421875L8.064299583435059,20.121185302734375C7.950774192810059,20.348602294921875,7.962737083435059,20.618988037109375,8.097502708435059,20.834930419921875C8.231291770935059,21.051239013671875,8.467619895935059,21.182342529296875,8.722258567810059,21.181854248046875L21.313077926635742,21.173553466796875C21.675870895385742,21.173553466796875,21.983976364135742,20.907806396484375,22.037443161010742,20.548797607421875C22.037443161010742,20.547943115234375,22.037443161010742,20.547454833984375,22.037443161010742,20.546966552734375C22.057706832885742,20.479217529296875,22.068937301635742,20.408538818359375,22.068937301635742,20.337982177734375L21.934171676635742,3.0704047679901123C21.932218551635742,2.8332221508026123,21.817960739135742,2.6108100414276123,21.626066207885742,2.4715278148651123C21.434904098510742,2.3317573070526123,21.188810348510742,2.2906196117401123,20.961759567260742,2.3612983226776123L15.060149192810059,4.271332263946533L9.173430442810059,2.3612983226776123C9.165129661560059,2.3598334789276123,9.157805442810059,2.3584907054901123,9.150481224060059,2.3575141429901123C9.084807395935059,2.3385932445526123,9.018401145935059,2.3289496898651123,8.951018333435059,2.3279731273651123C8.947356224060059,2.3271186351776123,8.944670677185059,2.3266303539276123,8.941008567810059,2.3261420726776123ZM8.190764427185059,4.103363513946533L8.190764427185059,18.396575927734375L3.5782155990600586,19.894622802734375L3.5782155990600586,5.603241443634033ZM20.444181442260742,4.103363513946533L20.545743942260742,17.191497802734375L15.807707786560059,7.486176013946533L15.807707786560059,5.603241443634033ZM9.689299583435059,4.105194568634033L14.310149192810059,5.603241443634033L14.310149192810059,7.306610584259033L9.689299583435059,16.787322998046875ZM15.020598411560059,9.208832740783691L20.139738082885742,19.711029052734375L9.897795677185059,19.712860107421875ZM14.967864036560059,12.328217506408691C14.773283958435059,12.328217506408691,14.586028099060059,12.406098365783691,14.448576927185059,12.545014381408691C14.310881614685059,12.683442115783691,14.234465599060059,12.871186256408691,14.235442161560059,13.066376686096191L14.235442161560059,15.419770240783691C14.236174583435059,15.823945045471191,14.563811302185059,16.151947021484375,14.967864036560059,16.152435302734375C15.371184349060059,16.150604248046875,15.697844505310059,15.823456764221191,15.698821067810059,15.419770240783691L15.698821067810059,13.066376686096191C15.699797630310059,12.871674537658691,15.624114036560059,12.684418678283691,15.486662864685059,12.545502662658691C15.348967552185059,12.407074928283691,15.162688255310059,12.328705787658691,14.967864036560059,12.328217506408691Z" style="display: inline; stroke-linecap: round; stroke-linejoin: round; fill: rgb(0, 0, 0); fill-opacity: 1;"/></g></g><g id="shape-63a85700-5cdb-80b5-8006-90c59966a51e" style="opacity: 1;"><g class="fills" id="fills-63a85700-5cdb-80b5-8006-90c59966a51e"><path d="M13.009856224060059,20.355072021484375L13.009856224060059,20.355072021484375L13.009856224060059,20.355072021484375Z" style="fill: none; fill-opacity: 1; stroke-linejoin: round; stroke-dasharray: none; display: inline; stroke-linecap: round;"/></g></g><g id="shape-63a85700-5cdb-80b5-8006-90c59966d88a" style="opacity: 1;"><g class="fills" id="fills-63a85700-5cdb-80b5-8006-90c59966d88a"><ellipse cx="14.986293780999631" cy="17.760001965354263" rx="0.7218523638696297" ry="0.721889536412732" transform="matrix(1, 0, 0, 1, 0, 0)" style="stroke-opacity: 1; stroke: none; stroke-width: 0.493547; stroke-linejoin: round; stroke-dasharray: none; display: inline; stroke-linecap: round; fill: rgb(0, 0, 0); fill-opacity: 1;"/></g></g></g></g></g></g></g></g></g></svg>

<svg fill="none" viewBox="0 0 24 24"><g class="frame-container-wrapper"><g class="frame-container-blur"><g class="frame-container-shadows"><g class="fills"><rect width="24" height="24" class="frame-background" rx="0" ry="0"/></g><g fill="#000" class="frame-children"><path d="M8.941 2.3261c-.0056.0005-.0122.0015-.0176.0019a.7535.7535 0 0 0-.215.0333L2.5954 4.3479a.7506.7506 0 0 0-.5156.7087v15.871a.7513.7513 0 0 0 .3108.603.7493.7493 0 0 0 .67.1062l5.0637-1.6388-.0601.1232a.7313.7313 0 0 0 .0332.7137.7324.7324 0 0 0 .6248.347l12.5908-.0083a.7325.7325 0 0 0 .7243-.6248v-.0018a.7317.7317 0 0 0 .0315-.209l-.1347-17.2676a.7476.7476 0 0 0-.3081-.5989.748.748 0 0 0-.6643-.1102l-5.9017 1.91-5.8867-1.91c-.0083-.0015-.0156-.0028-.023-.0038a.7562.7562 0 0 0-.1994-.0295.0959.0959 0 0 0-.01-.0019Zm-.7502 1.7773v14.2932l-4.6126 1.498V5.6032Zm12.2534 0 .1015 13.0881-4.738-9.7053v-1.883Zm-10.7549.0018 4.6208 1.498v1.7034l-4.6208 9.4807Zm5.3313 5.1036 5.1191 10.5022-10.2419.0019Zm-.0527 3.1194a.7309.7309 0 0 0-.5193.2168.7338.7338 0 0 0-.2132.5214v2.3534c.0008.4041.3284.7321.7325.7326a.7345.7345 0 0 0 .731-.7326v-2.3534a.7345.7345 0 0 0-.2122-.5209.7343.7343 0 0 0-.5188-.2173Z" class="fills"/><path fill="none" d="M13.0099 20.355Z" class="fills"/><circle cx="14.9863" cy="17.76" r=".7219" class="fills"/></g></g></g></g></svg>
